icons/lock-open-filled.svg

<svg xmlns="http://www.w3.org/2000/svg" width="24" height="24" viewBox="0 0 24 24">
    <path fill="#3A3A47" fill-rule="evenodd" d="M12 2c3.348 0 5.295 1.123 5.84 3.368.045.184.074.394.087.63.049.67-.26 1.004-.924 1.004-.665 0-1-.334-1.003-1.003.01-1.34-1.323-2.01-4-2.01S7.99 4.992 8 7.001v2h9.89c1.407 0 2.11.667 2.11 2v9c0 1.333-.667 2-2 2H6.002c-1.335 0-2.002-.667-2.002-2V11.03c0-1.351.667-2.027 2-2.027l.002-2C6 3.667 8 2 12 2zm0 11.002c-.667 0-1 .333-1 1v3c0 .667.333 1 1 1s1-.333 1-1v-3c0-.667-.333-1-1-1z"/>
</svg>

<svg width="24" height="24" viewBox="0 0 24 24" fill="none" xmlns="http://www.w3.org/2000/svg">
<path fill-rule="evenodd" clip-rule="evenodd" d="M17.89 9.002L17.925 6.321C17.885 6.935 17.551 7.241 16.925 7.241C16 7.238 15.852 6.313 15.773 6.036C15.408 4.757 14.46 4.002 12 4.002C7.997 4.002 8 6.002 8 9.002H17.89C19.297 9.002 20 9.669 20 11.002V20.002C20 21.335 19.333 22.002 18 22.002H6.002C4.667 22.002 4 21.335 4 20.002V11.03C4 9.679 4.667 9.003 6 9.003L6.002 7.003C6 3.667 8 2 12 2C15.348 2 17.295 3.123 17.84 5.368C17.885 5.552 17.914 5.8 17.927 6.113V6.141L17.89 9.002ZM11 17.002C11 17.669 11.333 18.002 12 18.002C12.667 18.002 13 17.669 13 17.002V14.002C13 13.335 12.667 13.002 12 13.002C11.333 13.002 11 13.335 11 14.002V17.002Z" fill="#3A3A47"/>
</svg>
